brandFactory_export/2.Regular/Pastilla _2Regular.svg

<?xml version="1.0" encoding="UTF-8"?>
<svg width="24px" height="24px" viewBox="0 0 24 24" version="1.1" xmlns="http://www.w3.org/2000/svg" xmlns:xlink="http://www.w3.org/1999/xlink">
    <title>2.Regular/Pastilla _2Regular</title>
    <g id="Symbols" stroke="none" stroke-width="1" fill="none" fill-rule="evenodd">
        <g id="2.Regular/Pastilla-_2Regular" fill="#5CB615" fill-rule="nonzero">
            <path d="M20.410084,10.8168067 L16.5546218,14.6722689 C16.5176471,14.6789916 16.4806723,14.6722689 16.4403361,14.6857143 C14.6655462,15.2537815 12.6890756,13.7647059 11.3411765,12.4168067 C9.34117647,10.4168067 8.62857143,8.6487395 9.16302521,7.00840336 C9.17310924,6.97478992 9.1697479,6.94117647 9.17647059,6.91092437 L12.1848739,3.90252101 C12.2857143,3.78823529 12.3966387,3.68067227 12.507563,3.57647059 L12.7159664,3.37478992 C13.9563025,2.13445378 15.2067227,1.49243697 16.4336134,1.47226891 L16.5008403,1.47226891 C17.7478992,1.47226891 19.0218487,2.11428571 20.2857143,3.37815126 C22.7932773,5.88235294 22.8302521,8.31932773 20.410084,10.8168067 Z M10.9747899,20.2521008 L10.8739496,20.3563025 C10.8369748,20.3966387 10.8033613,20.4336134 10.7361345,20.4941176 C8.27563025,22.8 5.88235294,22.7159664 3.41176471,20.2487395 C2.12436975,18.9613445 1.48235294,17.6672269 1.50588235,16.4 C1.52605042,15.1764706 2.16806723,13.9260504 3.40840336,12.6857143 L3.61008403,12.4773109 C3.71764706,12.3630252 3.82521008,12.2521008 3.97647059,12.1176471 L7.55294118,8.54117647 C7.6907563,10.1277311 8.59159664,11.7512605 10.302521,13.4621849 C11.9495798,15.1092437 13.5193277,16.0403361 14.9848739,16.2453782 L10.9747899,20.2521008 Z M21.3243697,2.33613445 C19.7445378,0.756302521 18.0571429,-0.0302521008 16.4033613,0.00336134454 C14.7831933,0.0336134454 13.1932773,0.820168067 11.6739496,2.33613445 L11.4890756,2.51092437 C11.3411765,2.65210084 11.1966387,2.78991597 11.102521,2.90420168 L2.97142857,11.0386555 C2.82352941,11.1663866 2.68235294,11.3109244 2.53781513,11.4621849 L2.36302521,11.6436975 C0.843697479,13.1630252 0.0605042017,14.7529412 0.0302521008,16.3697479 C0.00336134453,18.0504202 0.786554622,19.7042017 2.3697479,21.2840336 C3.92941176,22.8436975 5.57310924,23.6235294 7.21008403,23.6235294 C8.7394958,23.6235294 10.2621849,22.9445378 11.7109244,21.589916 C11.7915966,21.5226891 11.8655462,21.4487395 11.9394958,21.3680672 L21.4554622,11.8487395 C24.4369748,8.77647059 24.389916,5.39831933 21.3243697,2.33613445 Z" id="Pastilla-_2Regular"></path>
        </g>
    </g>
</svg>

<svg width="24" height="24" viewBox="0 0 24 24" xmlns="http://www.w3.org/2000/svg"><path d="M20.41 10.817l-3.855 3.855c-.037.007-.074 0-.115.014-1.774.568-3.75-.921-5.099-2.27-2-2-2.712-3.767-2.178-5.408.01-.033.007-.067.013-.097l3.009-3.008c.1-.115.212-.222.323-.327l.208-.201c1.24-1.24 2.49-1.883 3.718-1.903h.067c1.247 0 2.52.642 3.785 1.906 2.507 2.504 2.544 4.941.124 7.439zm-9.435 9.435l-.101.104c-.037.04-.07.078-.138.138-2.46 2.306-4.854 2.222-7.324-.245-1.288-1.288-1.93-2.582-1.906-3.849.02-1.224.662-2.474 1.902-3.714l.202-.209c.108-.114.215-.225.366-.36l3.577-3.576c.138 1.587 1.039 3.21 2.75 4.921 1.647 1.647 3.216 2.578 4.682 2.783l-4.01 4.007zm10.35-17.916C19.744.756 18.056-.03 16.402.003c-1.62.03-3.21.817-4.73 2.333l-.184.175c-.148.141-.292.279-.386.393L2.97 11.04c-.147.127-.289.272-.433.423l-.175.182C.843 13.163.061 14.753.03 16.37c-.027 1.68.757 3.334 2.34 4.914 1.56 1.56 3.203 2.34 4.84 2.34 1.53 0 3.052-.68 4.5-2.034.082-.067.156-.141.23-.222l9.515-9.52c2.982-3.072 2.935-6.45-.13-9.512z" fill="#5CB615" fill-rule="nonzero"/></svg>
